X:73
T:Rambling Pitchfork
M:6/8
L:1/8
K:D Major
E|FFF AFF|dFF AFF|GFG ABc|ded cAG|!
FFF AFF|dFF AFF|GFG BGB|AFD D2:|!
A|dcd fdf|ecA AFA|dcd efg|faf gfe|!
dcd fdf|ecA AGF|GFG BGB|AFD D2:|!
